X: 4652
T: Boxwood, The
R: jig
M: 6/8
K: Eminor
|:F|GEE B2A|GEF GFE|FDD A2G|FAd BAF|
GEE B2A|GEF GAB|AFd BAF|GEE E2:|
|:e|Bef e2d|Bee fdB|AFd BAF|FEF DFA|
Bef e2d|Bee fdB|AFd BAF|GEE E2:|

